svg/printer_pos_wrench.svg

<svg xmlns="http://www.w3.org/2000/svg" viewBox="0 0 24 24"><path d="M17 9H7V4h10zm-6 7c0 1.13.39 2.16 1 3H4v-7a2 2 0 0 1 2-2h12a2 2 0 0 1 2 2v1.03A4.97 4.97 0 0 0 16 11c-2.76 0-5 2.24-5 5m-1-4H6v2h4zm12.87 9.19-4.11-4.11c.41-1.04.18-2.26-.68-3.11-.9-.91-2.25-1.09-3.34-.59l1.94 1.94-1.35 1.36-1.99-1.95c-.54 1.09-.29 2.44.59 3.35a2.91 2.91 0 0 0 3.12.68l4.11 4.1c.18.19.45.19.63 0l1.04-1.03c.22-.18.22-.5.04-.64"/></svg>

<svg xmlns="http://www.w3.org/2000/svg" id="mdi-printer-pos-wrench" viewBox="0 0 24 24"><path d="M17 9H7V4H17V9M11 16C11 17.13 11.39 18.16 12 19H4V12C4 10.9 4.89 10 6 10H18C19.11 10 20 10.9 20 12V13.03C19.09 11.8 17.64 11 16 11C13.24 11 11 13.24 11 16M10 12H6V14H10V12M22.87 21.19L18.76 17.08C19.17 16.04 18.94 14.82 18.08 13.97C17.18 13.06 15.83 12.88 14.74 13.38L16.68 15.32L15.33 16.68L13.34 14.73C12.8 15.82 13.05 17.17 13.93 18.08C14.79 18.94 16 19.16 17.05 18.76L21.16 22.86C21.34 23.05 21.61 23.05 21.79 22.86L22.83 21.83C23.05 21.65 23.05 21.33 22.87 21.19Z" /></svg>
